packages/foundations/assets/icons/functional/images/social/face_smiling_16.svg

<svg width="16" height="16" viewBox="0 0 16 16" fill="none" xmlns="http://www.w3.org/2000/svg">
<g clip-path="url(#clip0_187_401)">
<path fill-rule="evenodd" clip-rule="evenodd" d="M8.00002 2.39999C11.0928 2.39999 13.6 4.90719 13.6 7.99999C13.6 11.0928 11.0928 13.6 8.00002 13.6C4.90722 13.6 2.40002 11.0928 2.40002 7.99999C2.40002 4.90719 4.90722 2.39999 8.00002 2.39999ZM8.00002 3.99999C5.79442 3.99999 4.00002 5.79439 4.00002 7.99999C4.00002 10.2056 5.79442 12 8.00002 12C10.2056 12 12 10.2056 12 7.99999C12 5.79439 10.2056 3.99999 8.00002 3.99999ZM9.61442 8.57599C9.83122 8.57599 10.0464 8.66319 10.204 8.83439C10.5032 9.15999 10.4816 9.66639 10.156 9.96479C10.0632 10.0504 9.21202 10.7992 7.99762 10.7992C6.78322 10.7992 5.93682 10.056 5.84402 9.97119C5.52002 9.67519 5.49842 9.17679 5.79122 8.85039C6.08482 8.52239 6.58882 8.49679 6.91842 8.78639C6.92322 8.79039 7.39602 9.19999 7.99842 9.19999C8.59122 9.19999 9.06082 8.79999 9.08002 8.78319C9.23202 8.64479 9.42402 8.57679 9.61442 8.57599ZM6.40002 5.59999C6.95231 5.59999 7.40002 6.04771 7.40002 6.59999C7.40002 7.15228 6.95231 7.59999 6.40002 7.59999C5.84774 7.59999 5.40002 7.15228 5.40002 6.59999C5.40002 6.04771 5.84774 5.59999 6.40002 5.59999ZM9.60002 5.59999C10.1523 5.59999 10.6 6.04771 10.6 6.59999C10.6 7.15228 10.1523 7.59999 9.60002 7.59999C9.04774 7.59999 8.60002 7.15228 8.60002 6.59999C8.60002 6.04771 9.04774 5.59999 9.60002 5.59999Z" fill="#1A1C1F"/>
</g>
<defs>
<clipPath id="clip0_187_401">
<rect width="16" height="16" fill="white"/>
</clipPath>
</defs>
</svg>

<svg xmlns="http://www.w3.org/2000/svg" width="16" height="16" fill="none"><g clip-path="url(#a)"><path fill="#1A1C1F" fill-rule="evenodd" d="M8 2.4a5.6 5.6 0 1 1 0 11.2A5.6 5.6 0 0 1 8 2.4M8 4C5.794 4 4 5.794 4 8s1.794 4 4 4 4-1.794 4-4-1.794-4-4-4m1.614 4.576a.799.799 0 0 1 .542 1.389c-.093.085-.944.834-2.158.834-1.215 0-2.061-.743-2.154-.828a.795.795 0 0 1-.053-1.12.803.803 0 0 1 1.127-.065c.005.004.478.414 1.08.414.593 0 1.063-.4 1.082-.417a.8.8 0 0 1 .534-.207M6.4 5.6a1 1 0 1 1 0 2 1 1 0 0 1 0-2m3.2 0a1 1 0 1 1 0 2 1 1 0 0 1 0-2" clip-rule="evenodd"/></g><defs><clipPath id="a"><path fill="#fff" d="M0 0h16v16H0z"/></clipPath></defs></svg>
